X:1554
T:Blackbird, The
R:set dance
N:See also #8
D:Bothy Band: Out of the Wind, into the Sun
Z:id:hn-setdance-8
M:C|
K:Dmix
dc|:B2Bd c2Bc|AGFG ABcA|d^cde d=cAF|GAGF D2DE|FEFG A2 (3gfe|
d2de dcAF|1 [M:3/2] GAGF D2 (3DDD D2dc:|2 [M:3/2] GAGF D2 (3DDD D2de||
|: [M:C|] fede fdgd|abag fgaf|g2gf gbaf|gagf d^cde|
fede fdgd|abag fgaf| [M:3/2] gagf d2d^c defg|
[M:C|] a2ag fgaf|g2ge f2fe|dcAG ABcd|efge a2z2|A2AB AGFD|
c2 (3edc dcAF|1 [M:3/2] GAGF D2 (3DDD D2de:|2 [M:3/2] GAGF D2 (3DDD D2||
